X:1
T:The Flower of Northumberland
M:6/8
L:1/8
K:C
 B2 BB-A G|A-B d e2 z| d2 BB-A G| ABd d2G/2-A/2| B2 BB-A G|A-B d e2 g|\
 dBd ded|c-B A G2||
